X:1
T:Lad O'Beirne's
R:jig
M:6/8
L:1/8
K:D
A|:dAF AGF| dAF AGF| A,CE GFG| A,CE GFE|
DFA DGB| Adc d2e| fed cBA|1 GFE D2A:|2 GFE D2e|]
|:fef afa| fdd d2f| ece gfg| efd cde|
~f3 gfg| a2a bag| fed cBA|1 GFE D2e:|2 GFE D2A|]
</abc>
